X:1
T:Til Norden
T:Til Norden
T:Bind 1, No.13
T:Bernhard Crusell
T:F. B. Cøster
C:B. Crusell
Z:F. B. Cøster
%%score [ 1 2 3 4 ]
L:1/8
Q:1/4=92
M:4/4
K:Bb
V:1 treble-8 nm="T1"
V:2 treble-8 nm="T2"
V:3 bass nm="B1"
V:4 bass nm="B2"
V:1
!mf!"^Andante" d4 c3 d | B2!<(! d2!<)!!>(! !fermata!f4!>)! | d4 c3 d | %3
w: 1.Hell dig, du|hö- ga Nord!|Hell dig, vor|
w: 2.Hell dig, du|fri- a Strand!|Hell dig, du|
w: 3.Hell er, I|gam- la Berg!|Jät- tar, med|
 B2!<(! d2!<)!!>(! !fermata!f4!>)! |!f! g7/2 f/ f2 z2 | e7/2 d/ d2!p! c2 | %6
w: fo- ster- jord!|Kraft och mod,|lif och blod vi|
w: hjel- tars land!|E- nig- het,|tro- fast- het är|
w: jern til märg!|Fjäll och haf|al- drig slaf i|
 f2 d2!<(! (e>d)!<)! (e>f) |!>(! e4 d2!>)! z2 |!f! g7/2 f/ f2 z2 | e7/2 d/ d2!p! c2 | %10
w: of- fre för _ din _|ä- ra.|Kraft och mod,|lif och blod vi|
w: di- na sö- * ners _|lä- ra.|E- nig- het,|tro- fast- het är|
w: Man- hem sko- * la _|bä- ra!|Fjäll och haf|al- drig slaf i|
 f2!<(! (B>c)!<)! (d>f) (e>c) |!>(! c4 B2!>)! z2 :|"^Coda" z4!f! d3 d |!<(! f4 d2 B2!<)! | %14
w: of- fre _ för _ din _|ä- ra.|3.Lef- ve,|lef- ve vort|
w: di- na _ sö- * ners _|lä- ra.|||
w: Man- hem _ sko- * la _|bä- ra!|||
!ff! g4 f4 |!<(! d8-!<)! |!>(! d2 z2!>)! z4 |] %17
w: fo- ster-|land!|_|
w: |||
w: |||
V:2
!mf! B4 F3 F | F2!<(! B2!<)!!>(! !fermata!d4!>)! | B4 F3 F | F2!<(! B2!<)!!>(! !fermata!d4!>)! | %4
w: 1.Hell dig, du|hö- ga Nord!|Hell dig, vor|fo- ster- jord!|
w: 2.Hell dig, du|fri- a Strand!|Hell dig, du|hjel- tars land!|
w: 3.Hell er, I|gam- la Berg!|Jät- tar, med|jern til märg!|
!f! B7/2 B/ B2 z2 | A7/2 B/ B2!p! A2 | B2 B2!<(! B2!<)! A2 |!>(! c4 B2!>)! z2 |!f! B7/2 B/ B2 z2 | %9
w: Kraft och mod,|lif och blod vi|of- fre för din|ä- ra.|Kraft och mod,|
w: E- nig- het,|tro- fast- het är|di- na sö- ners|lä- ra.|E- nig- het,|
w: Fjäll och haf|al- drig slaf i|Man- hem sko- la|bä- ra!|Fjäll och haf|
 A7/2 B/ B2!p! A2 | B2!<(! B2!<)! (B>d) (c>A) |!>(! A4 B2!>)! z2 :|!f! B3 B B3 B | %13
w: lif och blod vi|of- fre för _ din _|ä- ra.|3.Lef- ve, lef- ve,|
w: tro- fast- het är|di- na sö- * ners _|lä- ra.||
w: al- drig slaf i|Man- hem sko- * la _|bä- ra!||
!<(! c4 d2 B2!<)! |!ff! c7 d |!<(! B8-!<)! |!>(! B2 z2!>)! z4 |] %17
w: lef- ve vort|fo- ster-|land!|_|
w: ||||
w: ||||
V:3
!mf! F,4 E,3 F, | D,2!<(! F,2!<)!!>(! !fermata!F,4!>)! | F,4 E,3 F, | %3
w: 1.Hell dig, du|hö- ga Nord!|Hell dig, vor|
w: 2.Hell dig, du|fri- a Strand!|Hell dig, du|
w: 3.Hell er, I|gam- la Berg!|Jät- tar, med|
 D,2!<(! F,2!<)!!>(! !fermata!F,4!>)! |!f! E,7/2 F,/ F,2 z2 | F,7/2 F,/ F,2!p! F,2 | %6
w: fo- ster- jord!|Kraft och mod,|lif och blod vi|
w: hjel- tars land!|E- nig- het,|tro- fast- het är|
w: jern til märg!|Fjäll och haf|al- drig slaf i|
 F,2 G,2!<(! G,2!<)! F,2 |!>(! (F,2 G,A,) B,2!>)! z2 |!f! G,7/2 B,/ B,2 z2 | F,7/2 F,/ F,2!p! F,2 | %10
w: of- fre för din|ä- * * ra.|Kraft och mod,|lif och blod vi|
w: di- na sö- ners|lä- * * ra.|E- nig- het,|tro- fast- het är|
w: Man- hem sko- la|bä- * * ra!|Fjäll och haf|al- drig slaf i|
 F,2!<(! G,2!<)! F,2 (F,>E,) |!>(! E,4 D,2!>)! z2 :| z4!f! F,3 F, |!<(! F,4 F,2 B,2!<)! | %14
w: of- fre för din _|ä- ra.|3.Lef- ve,|lef- ve vort|
w: di- na sö- ners _|lä- ra.|||
w: Man- hem sko- la _|bä- ra!|||
!ff! B,4 A,4 |!<(! F,8-!<)! |!>(! F,2 z2!>)! z4 |] %17
w: fo- ster-|land!|_|
w: |||
w: |||
V:4
!mf! B,,4 B,,3 B,, | B,,2!<(! B,,2!<)!!>(! !fermata!B,,4!>)! | B,,4 B,,3 B,, | %3
w: 1.Hell dig, du|hö- ga Nord!|Hell dig, vor|
w: 2.Hell dig, du|fri- a Strand!|Hell dig, du|
w: 3.Hell er, I|gam- la Berg!|Jät- tar, med|
 B,,2!<(! B,,2!<)!!>(! !fermata!B,,4!>)! |!f! E,7/2 D,/ D,2 z2 | C,7/2 B,,/ B,,2!p! E,2 | %6
w: fo- ster- jord!|Kraft och mod,|lif och blod vi|
w: hjel- tars land!|E- nig- het,|tro- fast- het är|
w: jern til märg!|Fjäll och haf|al- drig slaf i|
 D,2 G,2!<(! C,2!<)! F,2 |!>(! F,4 B,,2!>)! z2 |!f! E,7/2 D,/ D,2 z2 | C,7/2 B,,/ B,,2!p! E,2 | %10
w: of- fre för din|ä- ra.|Kraft och mod,|lif och blod vi|
w: di- na sö- ners|lä- ra.|E- nig- het,|tro- fast- het är|
w: Man- hem sko- la|bä- ra!|Fjäll och haf|al- drig slaf i|
 D,2!<(! E,2!<)! F,2 F,,2 |!>(! F,,4 B,,2!>)! z2 :|!f! B,,3 B,, B,,3 B,, |!<(! A,,4 B,,2 G,2!<)! | %14
w: of- fre för din|ä- ra.|3.Lef- ve, lef- ve,|lef- ve vort|
w: di- na sö- ners|lä- ra.|||
w: Man- hem sko- la|bä- ra!|||
!ff! E,4 F,4 |!<(! B,,8-!<)! |!>(! B,,2 z2!>)! z4 |] %17
w: fo- ster-|land!|_|
w: |||
w: |||

